X:1
T:Morning Prayer, 77.76 D
T:Morning Prayer, 77.76 D
T:James Reed, 1920
T:Public Domain Courtesy of the Cyber Hymnal™
C:James Reed, 1920
Z:Public Domain
Z:Courtesy of the Cyber Hymnal™
%%score 1 ( 2 3 )
L:1/8
M:4/4
K:C
V:1 treble 
V:2 bass 
V:3 bass 
V:1
 [EG]2 [CE]2 [EG]2 [CE]2 | [FA]2 [EG]2 [DF]4 | [DF]2 [B,D]2 [DF]2 [B,D]2 | [EG]2 [DF]2 [CE]4 | %4
 [EG]2 [CE]2 [EG]2 [CE]2 | [^CA]2 [EG]2 [DF]3 [CE] | [B,D]2 [CE]2 [DF]2 [B,G]2 | [CE]6 [EG]2 | %8
 [FA]2 [EG]2 [DF]2 [CE]2 | [B,D]2 [CE]2 [DF]2 [EG]2 | [GB]2 [FA]2 [EG]2 [DF]2 | %11
 [CE]2 [DF]2 [EG]2 [EG]2 | [Ec]2 [GB]2 [FA]2 [EG]2 | [FA]2 [GB]2 [Gc]2 [GB]2 | %14
 [FA]2 [Fd]2 [Ec]2 [DB]2 | [Ec]8 |] %16
V:2
 [C,G,]2 [C,G,]2 [C,G,]2 [C,G,]2 | [C,C]2 [C,G,]2 G,4 | [G,,G,]2 [G,,G,]2 [G,,G,]2 [G,,G,]2 | %3
 [G,,G,]2 [G,,G,]2 [C,G,]4 | [C,G,]2 [C,G,]2 [C,G,]2 [C,G,]2 | [A,,A,]2 [A,,A,]2 [D,A,]3 [F,,A,] | %6
 [G,,D,]2 [G,,G,]2 [G,,G,]2 [G,,G,]2 | [C,G,]6 z2 | z8 | z8 | z8 | z8 | %12
 [C,C]2 [C,C]2 [C,C]2 [C,C]2 | [F,C]2 [F,D]2 [E,C]2 [E,C]2 | [F,C]2 [F,A,]2 G,2 G,2 | [C,G,]8 |] %16
V:3
 x8 | x8 | x8 | x8 | x8 | x8 | x8 | x8 | x8 | x8 | x8 | x8 | x8 | x8 | x4 G,2 G,2 | x8 |] %16

